!!!COM: Bach, Johann Sebastian
!!!OTL@@DE: 90. Hast du denn, Liebster, dein Angesicht
!!!OTL@EN: Hast Thou then, Jesus, hidden Thy countenance
!!!SCA: BWV 57.8
**harm	**root	**kern	**kern	**kern	**kern
*staff2	*	*staff2	*staff2	*staff1	*staff1
*Iorgan	*Ipiano	*Iorgan	*Iorgan	*Iorgan	*Iorgan
*>[A,A,B]	*>[A,A,B]	*>[A,A,B]	*>[A,A,B]	*>[A,A,B]	*>[A,A,B]
*>norep[A,B]	*>norep[A,B]	*>norep[A,B]	*>norep[A,B]	*>norep[A,B]	*>norep[A,B]
*>A	*>A	*>A	*>A	*>A	*>A
!	!	!bass	!tenor	!alto	!sprno
*	*	*clefF4	*clefF4	*clefG2	*clefG2
*k[b-e-a-d-g-c-f-]	*k[b-e-a-d-g-c-f-]	*k[b-e-a-d-g-c-f-]	*k[b-e-a-d-g-c-f-]	*k[b-e-a-d-g-c-f-]	*k[b-e-a-d-g-c-f-]
*C-:	*C-:	*C-:	*C-:	*C-:	*C-:
*M3/4	*M3/4	*M3/4	*M3/4	*M3/4	*M3/4
*MM80	*MM80	*MM80	*MM80	*MM80	*MM80
=1-	=1-	=1-	=1-	=1-	=1-
I	4BB-	4c-	4e-	4g-	4cc-
I	4BB-	4c-	4e-	4g-	4cc-
Vb	4FF	4B-	4d-	4g-	4gg-
=2	=2	=2	=2	=2	=2
I	4.BB-	4.c-	4.c-	4.g-	4.ee-
Vb	8FF	8B-	8d-	8g-	8dd-
vi	4GG	4A-	8e-L	4a-	4cc-
.	.	.	8fJ	.	.
=3	=3	=3	=3	=3	=3
V	4FF	4G-	4g-	4d-	4b-
Vc	4FF	4D-	4g-	4d-	8cc-L
.	.	.	.	.	8b-
V7d	4FF	4F-	4B-	4d-	8a-
.	.	.	.	.	8g-J
=4	=4	=4	=4	=4	=4
Ib	4BB-	4E-	4c-	4g-	4cc-
viiob	4AA	4D-	4F-	8a-L	4dd-
.	.	.	.	8b-	.
I	4BB-	4C-	4G-	8cc-	8ee-L
.	.	.	.	8dd-J	8ff-J
=5	=5	=5	=5	=5	=5
V7	2FF	2G-	4g-	2b-	2dd-
.	.	.	4f-	.	.
I;	4BB-;	4C-;	4e-;	4g-;	4cc-;
=6:|!	=6:|!	=6:|!	=6:|!	=6:|!	=6:|!
*>B	*>B	*>B	*>B	*>B	*>B
I	4BB-	4C-	4e-	4cc-	4gg-
viiob	4AA	4D-	4f-	4b-	8ff-L
.	.	.	.	.	8ee-
Ib	4BB-	4E-	4g-	4g-	8dd-
.	.	.	.	.	8cc-J
=7	=7	=7	=7	=7	=7
!!linebreak: 2
IV;	2EE-;	2F-;	2f-;	2cc-;	2aa-;
r	4r	4r	4r	4r	4r
=8	=8	=8	=8	=8	=8
I	4BB-	4c-	4g-	4cc-	4ee-
IVb	4EE-	8B-L	4a-	4cc-	4ff-
.	.	8A-	.	.	.
V	4FF	8G-	4d-	8b-L	4gg-
.	.	8F-J	.	8a-J	.
=9	=9	=9	=9	=9	=9
iii7	4DD	4E-	4d-	4g-	4gg-
Ib	4BB-	4E-	4c-	4cc-	8aa-L
.	.	.	.	.	8gg-
IV	4EE-	4F-	4c-	4a-	8ff-
.	.	.	.	.	8ee-J
=10	=10	=10	=10	=10	=10
V;	2FF;	2G-;	2g-;	2b-;	2dd-;
r	4r	4r	4r	4r	4r
=11	=11	=11	=11	=11	=11
Ib	4BB-	4E-	4c-	4g-	4g-
Vb/V	4CC	4F	8B-L	4d-	4a-
.	.	.	8A-J	.	.
viioD7/VI	4FF#	4G	4f-y	4d-	4b-
=12	=12	=12	=12	=12	=12
vi	4GG	4A-	4e-	4c-	4cc-
Vb	4FF	4B-	4d-	4g-	4dd-
I	4BB-	4c-	4c-	4g-	8ee-L
.	.	.	.	.	8ff-J
=13	=13	=13	=13	=13	=13
Ic	4BB-	2G-	4c-	4.g-	2dd-
V7	4FF	.	4B-	.	.
.	.	.	.	8f-	.
I;	4BB-;	4C-;	4G-;	4e-;	4cc-;
==	==	==	==	==	==
*-	*-	*-	*-	*-	*-
!!!ENC: Craig Stuart Sapp
!!!END: 2004/12/06/
!!!ONB: Harmony and Root analysis done manually by Craig Sapp
!!chor2scor: -l 2 -s 0.6 -o %b.pmx
